X: 108
T: Missa Pro fidelibus defunctis / Introit
N: Derived from Rue1024a-Missa_Pro_fidelibus_defunctis-Introit.krn
C: Pierre de la Rue
%%abc-version 2.0
%%abcx-abcm2ps-target-version 5.9.1 (29 Sep 2008)
%%abc-creator hum2abc beta
%%abcx-conversion-date 2019/02/17 08:01:14
%%abc-edited-by Jesse Rodin
%%abc-edited-by Chris Gage 04-23-2013
%%abcx-initial-encoding-date 2013/08/01/
%%humdrum-veritas 2334986385
%%humdrum-veritas-data 3365016683
%%linebreak <none>
%%barnumbers 0
L: 1/4
M: 2/1
Q: 1/2=120
%%staves [1 2 3 4]
V: 1 clef=treble-8
V: 2 clef=bass
V: 3 clef=bass
V: 4 clef=bass
K: Bb
[V:1] z8 | 
[V:2] F,8 | 
[V:3] z4B,,4- | 
[V:4] z8 | 
[V:1] z8 | 
[V:2] G,4A,4- | 
[V:3] B,,4C,4 | 
[V:4] z8 | 
[V:1] z8 | 
[V:2] A,2F,2F,4- | 
[V:3] D,6B,,2 | 
[V:4] z4B,,4- | 
[V:1] z8 | 
[V:2] F,4B,4- | 
[V:3] B,,8 | 
[V:4] B,,2G,,2G,,4 | 
[V:1] c8 | 
[V:2] B,2A,2A,4 | 
[V:3] C,8 | 
[V:4] F,,8 | 
[V:1] d4d4 | 
[V:2] B,8 | 
[V:3] B,,8 | 
[V:4] z4B,,4- | 
[V:1] d4f4- | 
[V:2] z4B,4- | 
[V:3] z4D,4 | 
[V:4] B,,4B,,4- | 
[V:1] f2e2d4 | 
[V:2] B,4B,4 | 
[V:3] D,4F,4- | 
[V:4] B,,4B,,4 | 
[V:1] d2c4B2 | 
[V:2] A,4G,4- | 
[V:3] F,2E,2D,4 | 
[V:4] F,,4G,,4 | 
[V:1] c2A4G2- | 
[V:2] G,2F,4D,2 | 
[V:3] C,6B,,2 | 
[V:4] C,,2F,,4G,,2 | 
[V:1] G2^F2G4 | 
[V:2] C,4B,,4 | 
[V:3] C,4D,4 | 
[V:4] A,,4G,,4 | 
[V:1] z4G4- | 
[V:2] C,4B,,4- | 
[V:3] E,6D,2- | 
[V:4] z4G,,4- | 
[V:1] G4G4 | 
[V:2] B,,2C,2D,4 | 
[V:3] D,2C,4B,,2 | 
[V:4] G,,4G,,4 | 
[V:1] G8 | 
[V:2] E,8 | 
[V:3] C,8 | 
[V:4] C,,8 | 
[V:1] z4B4 | 
[V:2] z4D,4 | 
[V:3] B,,8 | 
[V:4] G,,8 | 
[V:1] B4A4 | 
[V:2] D,4C,4 | 
[V:3] z8 | 
[V:4] z8 | 
[V:1] B4c4 | 
[V:2] D,4C,4 | 
[V:3] z8 | 
[V:4] z8 | 
[V:1] d8 | 
[V:2] B,,8 | 
[V:3] z4D,4 | 
[V:4] z4B,,4 | 
[V:1] z8 | 
[V:2] z8 | 
[V:3] D,4C,4 | 
[V:4] B,,4A,,4 | 
[V:1] z8 | 
[V:2] z4E,4 | 
[V:3] D,4C,4 | 
[V:4] B,,4C,4 | 
[V:1] [M:3/3](3:2:2d8d4 | 
[V:2] F,4G,4 | 
[V:3] B,,8 | 
[V:4] D,8 | 
[V:1] (3f6e2d4 | 
[V:2] F,4B,4 | 
[V:3] D,8 | 
[V:4] [M:3/3](3:2:2B,,8B,,4 | 
[V:1] (3c4d6c2 | 
[V:2] [M:3/3](3A,4B,6A,2 | 
[V:3] F,8 | 
[V:4] (3F,,4B,,6F,,2 | 
[V:1] (3:2:2c8B4 | 
[V:2] (3G,6F,2D,4 | 
[V:3] E,4D,4 | 
[V:4] (3:2:2C,4G,,8 | 
[V:1] [M:2/1]c2G2A4 | 
[V:2] (3E,4z4z4 | 
[V:3] C,8 | 
[V:4] [M:2/1]E,,4F,,4 | 
[V:1] G8 | 
[V:2] (3:2:2B,,8C,4 | 
[V:3] [M:3/3](3:2:2E,8E,4 | 
[V:4] E,,8 | 
[V:1] z4G4- | 
[V:2] (3B,,4D,4E,4- | 
[V:3] (3D,6B,,2C,4 | 
[V:4] z4E,,4 | 
[V:1] G4G4 | 
[V:2] (3E,2F,2G,8 | 
[V:3] (3:2:2B,,4E,8 | 
[V:4] E,,8 | 
[V:1] A4B4 | 
[V:2] [M:2/1]F,4z4 | 
[V:3] [M:2/1]D,6C,B,, | 
[V:4] F,,4G,,4 | 
[V:1] c4d2B2- | 
[V:2] F,6D,2- | 
[V:3] A,,4B,,4 | 
[V:4] F,,4z2G,,2- | 
[V:1] B2e4d2- | 
[V:2] D,2G,4F,2 | 
[V:3] B,,4C,2D,2 | 
[V:4] G,,2E,,4F,,2 | 
[V:1] d2c2d4 | 
[V:2] B,2A,2G,2F,2 | 
[V:3] E,4D,4 | 
[V:4] G,,2A,,2B,,4 | 
[V:1] z2f4e2 | 
[V:2] F,8 | 
[V:3] C,8- | 
[V:4] F,,8- | 
[V:1] c4z2f2- | 
[V:2] z2F,4F,2 | 
[V:3] C,8- | 
[V:4] F,,8 | 
[V:1] f2e2c2e2- | 
[V:2] C,4E,3F, | 
[V:3] C,8- | 
[V:4] F,,4E,,4- | 
[V:1] e2d4c2- | 
[V:2] G,2F,2_A,4 | 
[V:3] C,8 | 
[V:4] E,,2F,,6 | 
[V:1] c2B4A2 | 
[V:2] G,4F,4- | 
[V:3] C,8 | 
[V:4] E,,4F,,4 | 
[V:1] B8 ||  
[V:2] F,4F,4 ||  
[V:3] B,,8 ||  
[V:4] B,,,8 ||  
[V:1]  [K:Bb] [K:clef=treble-8][M:2/1]B8 | 
[V:2]  [K:Bb] [K:clef=bass][M:2/1]D,8 | 
[V:3]  [K:Bb] [K:clef=bass][M:2/1]B,,8- | 
[V:4]  [K:Bb] [K:clef=bass][M:2/1]G,,8- | 
[V:1] B4A4- | 
[V:2] E,4F,4- | 
[V:3] B,,4C,4 | 
[V:4] G,,4F,,4 | 
[V:1] A4A4 | 
[V:2] F,4F,4 | 
[V:3] D,8 | 
[V:4] D,,8 | 
[V:1] A4A4- | 
[V:2] F,4F,4- | 
[V:3] D,4D,4 | 
[V:4] D,,4D,,4 | 
[V:1] A4d4- | 
[V:2] F,4F,4 | 
[V:3] D,8 | 
[V:4] D,,8 | 
[V:1] d2c2f4- | 
[V:2] F,8- | 
[V:3] z4D,4 | 
[V:4] z4D,,4 | 
[V:1] f2e2d2c2 | 
[V:2] F,8 | 
[V:3] D,8- | 
[V:4] D,,8 | 
[V:1] B6A2- | 
[V:2] z4F,4 | 
[V:3] D,8- | 
[V:4] z4D,,4- | 
[V:1] A2F2G4 | 
[V:2] F,2A,4G,2- | 
[V:3] D,8 | 
[V:4] D,,4E,,4 | 
[V:1] A8 | 
[V:2] G,2^F,=E,F,4 | 
[V:3] z4D,4 | 
[V:4] D,,8 | 
[V:1] G8 | 
[V:2] G,4G,,4- | 
[V:3] E,6D,2- | 
[V:4] G,,8 | 
[V:1] G6F2 | 
[V:2] G,,8 | 
[V:3] D,2B,,2C,4 | 
[V:4] E,,8 | 
[V:1] F8- | 
[V:2] A,,4B,,4 | 
[V:3] D,8- | 
[V:4] D,,4B,,,4 | 
[V:1] F8 | 
[V:2] A,,8 | 
[V:3] D,8 | 
[V:4] D,,8 | 
[V:1] G8 | 
[V:2] G,,8 | 
[V:3] B,,8 | 
[V:4] E,,8 | 
[V:1] G8 | 
[V:2] G,,8 | 
[V:3] C,8 | 
[V:4] E,,8 | 
[V:1] F4z2F2 | 
[V:2] A,,4B,,4 | 
[V:3] D,8- | 
[V:4] D,,4z2B,,,2 | 
[V:1] B4B4 | 
[V:2] B,,6B,,2 | 
[V:3] D,8 | 
[V:4] B,,,4B,,,4 | 
[V:1] B4B4 | 
[V:2] F,8 | 
[V:3] z2D,2D,4 | 
[V:4] B,,,4B,,,4 | 
[V:1] [M:3/1](3:2:2A8A4 | 
[V:2] F,8 | 
[V:3] D,4D,4 | 
[V:4] [M:3/1](3D,,6E,,2F,,4 | 
[V:1] (3B4d6c2 | 
[V:2] [M:3/3](3:2:2D,8G,4- | 
[V:3] [M:3/3](3B,,6C,2D,4 | 
[V:4] (3:2:1G,,12 | 
[V:1] (3c6=B2=B4 | 
[V:2] (3:2:1G,12 | 
[V:3] (3:2:2E,4D,8 | 
[V:4] (3:2:2z4G,,8 | 
[V:1] [M:2/1]c4A4 | 
[V:2] (3:2:2E,8F,4 | 
[V:3] (3:2:2C,8z4 | 
[V:4] (3:2:2_A,,8F,,4 | 
[V:1] A4A4 | 
[V:2] (3:2:2F,8F,4- | 
[V:3] (3C,4C,4C,4 | 
[V:4] (3:2:1F,,8/1023- | 
[V:1] A4A4 | 
[V:2] (3:2:2F,4F,8 | 
[V:3] (3:2:2C,4C,8 | 
[V:4] (3:2:2F,,4F,,8 | 
[V:1] G4A4 | 
[V:2] [M:2/1]B,,4F,4 | 
[V:3] (3E,6D,2C,4 | 
[V:4] [M:2/1]E,,4F,,4 | 
[V:1] [M:3/3](3B6A2B4 | 
[V:2] E,4G,4- | 
[V:3] (3B,,4C,4D,4 | 
[V:4] G,,8 | 
[V:1] (3c4A6G2 | 
[V:2] G,4F,4 | 
[V:3] (3:2:2E,4C,8 | 
[V:4] E,,4F,,4 | 
[V:1] (3:2:1B12 ||  
[V:2] D,8 ||  
[V:3] (3:2:1B,,12 ||  
[V:4] B,,,8 ||  



